X:1
T:When Will He Come?
T:John McPherson, 1888
T:When Will He Come?
T:Public Domain
T:Public Domain
C:John McPherson, 1888
Z:Public Domain
%%score ( 1 2 ) ( 3 4 )
L:1/8
M:6/8
K:Ab
V:1 treble 
V:2 treble 
V:3 bass 
V:4 bass 
V:1
 [CE] | [CE][CA][CA] [Ec][DB][CA] | [DB][DA][DF] [DF]2 [DF] | [CE][EA][EA] [DG][DF][DG] | %4
w: 1.~It|may be at mid- night when|Je- sus will come, To|take us a- way to our|
w: 2.~It|may be at noon- day when|all is so bright, His|bright- ness will out- shine the|
w: 3.~At|morn- ing or noon or at|night’s dis- mal hour, It|mat- ters not when He doth|
 [CA]3- [CA]2 [CE] | [CE][CA][CA] [Ec][DB][CA] | [DB][DA][DF] [Fd]2 [Fd] | %7
w: rest; * Tho’|dark be the hour He will|scat- ter its gloom, And|
w: sun; * He’ll|take us a- way to a|pal- ace of light, And|
w: come; * If|we are but trust- ing in|His sav- ing power, He’ll|
 [Ec][DB][CA] [EB][EA][EG] | [EA]3- [EA]2 z ||"^Refrain" [DB][DB][DB] [DB]2 [DG] | %10
w: we will be ev- er- more|blest. *||
w: give us the crown we have|won. *|When He doth come, His|
w: give us a pre- cious sweet|home. *||
 [CA][CA][DA] [CA]2 [EG] | [DF][DF][DF] [Fd][Fd][DF] | [CE]3- [CE]2 [CE] | [CA][DG][EA] [EB]2 E | %14
w: ||||
w: own to take home, We’ll|try to be rea- dy to|go; * On|pin- ions of light, He’ll|
w: ||||
 [Ec][EB][Ec] [Fd]2 [DF] | [CE][EA][EA] [EB][EB][EB] | [EA]3- [EA]2 |] %17
w: |||
w: ter earth’s night, And wash|our robes whit- er than snow.||
w: |||
V:2
 x | x6 | x6 | x6 | x6 | x6 | x6 | x6 | x6 || x6 | x6 | x6 | x6 | x5 E | x6 | x6 | x5 |] %17
w: |||||||||||||||||
w: |||||||||||||scat-||||
V:3
 [A,,A,] | [A,,A,][A,,E,][A,,E,] [A,,A,][A,,A,][A,,A,] | [D,F,][D,F,][D,A,] [D,A,]2 [D,A,] | %3
 [E,A,][E,C][E,C] [E,B,][E,B,][E,B,] | [A,,A,]3- [A,,A,]2 [A,,A,] | %5
 [A,,A,][A,,E,][A,,E,] [A,,A,][A,,A,][A,,A,] | [D,F,][D,F,][D,A,] [D,A,]2 [D,A,] | %7
 [E,A,][E,G,][E,A,] [E,D][E,C][E,B,] | [A,,C]3- [A,,C]2 z || [E,G,][E,G,][E,G,] [E,G,]2 [E,B,] | %10
 [A,,A,][A,,E,][A,,F,] [A,,E,]2 [C,A,] | [D,A,][D,A,][D,A,] [D,A,][D,A,][D,A,] | %12
 [A,,A,]3- [A,,A,]2 [A,,A,] | [A,,E,][B,,E,][C,A,] [E,G,]2 [G,B,] | A,[G,B,]A, [D,A,]2 [D,A,] | %15
 [E,A,][E,C][E,C] [E,D][E,D][E,D] | [A,,C]3- [A,,C]2 |] %17
V:4
 x | x6 | x6 | x6 | x6 | x6 | x6 | x6 | x6 || x6 | x6 | x6 | x6 | x6 | A,A, x4 | x6 | x5 |] %17

